X: 131
M: 2/2
L: 1/8
K: D
|: "2.f."D2D2 |\
E2E2 A2AD | C2A,2 D2D2 | E2E2 A2AC | D4 :: "2.f."D3F |\
EDCB, A,2AG | F4 D3F | EDCB, A,2B,C | D4 :|
[K:Dphr]\
|: d4 |\
"2.f'"c2BA B2c2 | A2F2 B4 | G2FE F2A2 | F2D2 d4 |\
c2BA B2c2 | A2F2 B4 | G2FE F2A2 | D4 :|
|: "4.f."DEFD | EFGE FGAD | ^C2A,2 DEFD | EFGE FGAA, | D4 :|

